src/assets/homepage/skills/item2.svg

<svg width="42" height="43" viewBox="0 0 42 43" fill="none" xmlns="http://www.w3.org/2000/svg">
<g id="Black">
<path id="Vector" d="M39.6397 0.864418C38.7123 1.20092 37.2185 2.26788 36.3486 3.21994C35.7494 3.86832 35.0518 4.82037 34.5347 5.68215C34.2967 6.08431 34.0915 6.42081 34.0833 6.43723C34.0669 6.45364 33.5416 5.96941 32.9179 5.36206C31.695 4.1802 31.1697 3.83549 30.3244 3.65493C30.0289 3.59747 28.6008 3.57285 25.917 3.58927C22.0677 3.61389 21.9282 3.6221 21.4111 3.79445C20.2129 4.20482 20.418 4.01605 10.4133 13.9798C4.9061 19.4541 0.876278 23.5332 0.712131 23.7876C0.186859 24.5919 0.0473331 25.0269 0.00629625 26.0364C-0.0347406 27.0952 0.1212 27.7764 0.580813 28.4987C0.999389 29.147 13.6388 41.8192 14.1969 42.1393C15.1817 42.7056 16.6016 42.8944 17.644 42.5907C18.8094 42.246 18.3744 42.6482 28.6829 32.3479C39.2129 21.8179 38.6302 22.458 38.9749 21.0874C39.1309 20.4965 39.1391 20.1682 39.1391 16.5405C39.1391 11.4683 39.1883 11.6571 37.3499 9.79404C36.7343 9.17028 36.2501 8.65322 36.2747 8.63681C36.2911 8.62039 36.5455 8.46445 36.841 8.2921C39.057 6.98712 40.8298 5.22253 41.6587 3.49899C41.9132 2.97371 41.9624 2.76853 41.9952 2.21864C42.0281 1.47176 41.8968 1.15168 41.4207 0.864418C41.0596 0.651028 40.2471 0.651028 39.6397 0.864418ZM40.444 2.3992C40.124 3.25277 39.1883 4.53312 38.3019 5.33744C37.7766 5.80526 36.8164 6.49468 35.8397 7.08561L35.2898 7.42211L35.6263 6.87222C36.7015 5.09943 37.5715 4.0653 38.6713 3.23635C39.1883 2.8424 40.3456 2.1776 40.5097 2.1776C40.5179 2.1776 40.4933 2.27608 40.444 2.3992ZM30.39 5.27178C30.6691 5.4031 31.1615 5.82988 32.0151 6.67524L33.2462 7.88993L33 8.38238C32.8358 8.70247 32.4911 9.12104 31.974 9.6381L31.1943 10.4014L30.8004 10.2537C30.5213 10.147 30.1848 10.0977 29.7006 10.0977C29.1097 10.0977 28.9291 10.1305 28.4941 10.3357C27.6077 10.7379 27.0086 11.5258 26.828 12.5025C26.6557 13.4463 26.9511 14.3738 27.6487 15.0632C29.1014 16.5241 31.5062 16.0809 32.3844 14.2014C32.5814 13.7828 32.6142 13.6023 32.6142 13.0113C32.6142 12.5271 32.565 12.1906 32.4583 11.9115L32.3105 11.5176L33.0738 10.7379C33.5827 10.2208 34.0095 9.87612 34.3296 9.71197L34.8138 9.46575L35.9956 10.6476C36.8492 11.493 37.235 11.9444 37.3991 12.2727L37.6207 12.7241V16.5405C37.6207 20.7509 37.6207 20.7837 37.079 21.6291C36.9559 21.8343 32.606 26.2334 27.4271 31.4041C16.8643 41.9506 17.7096 41.1955 16.4457 41.1955C15.1899 41.1955 15.6414 41.573 8.41886 34.3259C1.19637 27.0706 1.51645 27.4481 1.50825 26.2252C1.50825 24.9941 0.851656 25.7246 11.4556 15.137C20.3606 6.24025 20.9105 5.71498 21.4358 5.46876C21.7394 5.32103 22.2237 5.17329 22.5027 5.13226C22.7818 5.09943 24.5792 5.0748 26.4997 5.0748C29.9304 5.09122 29.9961 5.09122 30.39 5.27178ZM29.4708 12.1414C29.0276 12.601 28.9619 12.7077 28.9619 12.9867C28.9701 13.471 29.2738 13.75 29.7827 13.75C29.9878 13.75 30.152 13.6433 30.5706 13.2411L31.0958 12.7405V13.0524C31.0958 13.8731 30.2587 14.5297 29.4051 14.3738C29.0112 14.2917 28.4202 13.7008 28.3464 13.3068C28.1822 12.4697 28.847 11.6161 29.6513 11.6161H29.9714L29.4708 12.1414Z" fill="#3B4AE2"/>
<path id="Vector_2" d="M24.5139 17.1725L23.2253 18.461L22.38 17.6403C21.4361 16.7211 20.9683 16.4502 20.0162 16.2451C17.6771 15.7526 15.3052 17.3366 14.8046 19.7168C14.6568 20.4226 14.6568 20.7837 14.8046 21.506C15.0015 22.417 15.2806 22.893 16.1916 23.8287L17.0123 24.674L15.0097 26.6766L13.0071 28.6874L11.3903 27.087L9.78164 25.4866H9.4041C9.09222 25.4866 9.00194 25.5276 8.82138 25.741C8.38639 26.2498 8.42742 26.3237 10.2495 28.154L11.8909 29.7954L10.7009 30.9855C9.81447 31.8719 9.50259 32.2412 9.46155 32.43C9.34665 33.0373 9.93758 33.5052 10.5121 33.2589C10.6598 33.1933 11.2836 32.6352 11.8827 32.0196L12.9907 30.9116L13.8115 31.7078C14.7225 32.5859 15.2067 32.8896 16.0028 33.0784C18.662 33.7021 21.2802 31.7816 21.4689 29.0568C21.5674 27.6123 21.1735 26.6766 19.9752 25.4866L19.1955 24.7069L21.2227 22.6796L23.2499 20.6524L24.7273 22.1544C25.548 22.9833 26.3113 23.722 26.4344 23.804C26.9269 24.1159 27.567 23.722 27.567 23.1228C27.567 22.852 27.4439 22.7043 25.9502 21.2023L24.3333 19.5773L25.6219 18.2805C26.8776 17.0165 26.9104 16.9673 26.9104 16.6308C26.9104 16.1548 26.6396 15.8839 26.1636 15.8839C25.8271 15.8839 25.7778 15.9168 24.5139 17.1725ZM20.3117 17.9604C20.5333 18.0753 21.0422 18.4775 21.4279 18.8632L22.1337 19.5526L20.1065 21.5799L18.0793 23.6071L17.3735 22.8766C16.4624 21.9164 16.2901 21.5552 16.2819 20.6442C16.2819 20.0615 16.3147 19.8727 16.4953 19.487C16.881 18.6744 17.5458 18.0835 18.3994 17.8045C18.9247 17.6321 19.8028 17.6978 20.3117 17.9604ZM18.9 26.5617C19.7864 27.5056 19.967 27.9242 19.9178 28.8926C19.8849 29.4015 19.8275 29.6477 19.6551 29.9842C19.3679 30.5423 18.8426 31.0758 18.2763 31.3713C17.8905 31.5764 17.751 31.6011 17.0616 31.6011C16.0439 31.6011 15.7402 31.4533 14.8128 30.5095L14.1069 29.7954L16.0931 27.8092C17.1929 26.7095 18.1121 25.8149 18.1368 25.8149C18.1696 25.8149 18.5143 26.1514 18.9 26.5617Z" fill="#3B4AE2"/>
</g>
</svg>

<svg width="42" height="43" fill="none" xmlns="http://www.w3.org/2000/svg"><g fill="#3B4AE2"><path d="M39.64.864c-.928.337-2.422 1.404-3.291 2.356-.6.648-1.297 1.6-1.814 2.462-.238.402-.443.739-.452.755-.016.017-.541-.468-1.165-1.075-1.223-1.182-1.748-1.527-2.594-1.707-.295-.058-1.723-.082-4.407-.066-3.85.025-3.989.033-4.506.205-1.198.41-.993.222-10.998 10.186-5.507 5.474-9.537 9.553-9.7 9.808-.526.804-.666 1.239-.707 2.248-.04 1.06.115 1.74.575 2.463.418.648 13.058 13.32 13.616 13.64.985.567 2.405.755 3.447.452 1.165-.345.73.057 11.039-10.243 10.53-10.53 9.947-9.89 10.292-11.26.156-.591.164-.92.164-4.547 0-5.073.05-4.884-1.79-6.747-.615-.624-1.099-1.14-1.074-1.157.016-.017.27-.173.566-.345 2.216-1.305 3.989-3.07 4.818-4.793.254-.525.303-.73.336-1.28.033-.747-.098-1.067-.574-1.355-.361-.213-1.174-.213-1.781 0Zm.804 1.535c-.32.854-1.256 2.134-2.142 2.938-.525.468-1.486 1.158-2.462 1.749l-.55.336.336-.55c1.076-1.773 1.946-2.807 3.045-3.636.517-.394 1.675-1.058 1.839-1.058.008 0-.017.098-.066.221ZM30.39 5.272c.28.131.771.558 1.625 1.403l1.231 1.215-.246.492c-.164.32-.509.739-1.026 1.256l-.78.763-.394-.147c-.279-.107-.615-.156-1.1-.156-.59 0-.77.032-1.206.238-.886.402-1.485 1.19-1.666 2.166-.172.944.123 1.872.82 2.561 1.453 1.461 3.858 1.018 4.736-.862.197-.418.23-.599.23-1.19 0-.484-.049-.82-.156-1.1l-.148-.393.764-.78c.509-.517.936-.862 1.256-1.026l.484-.246 1.182 1.182c.853.845 1.239 1.296 1.403 1.625l.222.451v3.817c0 4.21 0 4.243-.542 5.088-.123.205-4.473 4.604-9.652 9.775-10.563 10.547-9.717 9.792-10.981 9.792-1.256 0-.805.377-8.027-6.87-7.223-7.255-6.903-6.878-6.91-8.1 0-1.232-.657-.501 9.947-11.089 8.905-8.897 9.454-9.422 9.98-9.668a4.433 4.433 0 0 1 1.067-.337c.279-.033 2.076-.057 3.997-.057 3.43.016 3.496.016 3.89.197Zm-.92 6.87c-.442.459-.508.566-.508.845.008.484.312.763.82.763.206 0 .37-.107.789-.509l.525-.5v.311c0 .821-.837 1.478-1.69 1.322-.395-.082-.986-.673-1.06-1.067-.164-.837.501-1.69 1.305-1.69h.32l-.5.524Z"/><path d="m24.514 17.172-1.289 1.289-.845-.82c-.944-.92-1.412-1.19-2.364-1.396-2.339-.492-4.71 1.092-5.211 3.472-.148.706-.148 1.067 0 1.789.197.911.476 1.387 1.387 2.323l.82.845-2.002 2.003-2.003 2.01-1.617-1.6-1.608-1.6h-.378c-.312 0-.402.04-.583.254-.435.509-.394.583 1.428 2.413l1.642 1.641-1.19 1.19c-.887.887-1.198 1.256-1.24 1.445a.75.75 0 0 0 1.051.829c.148-.066.772-.624 1.37-1.24l1.109-1.107.82.796c.912.878 1.396 1.182 2.192 1.37 2.659.624 5.277-1.296 5.466-4.021.098-1.445-.296-2.38-1.494-3.57l-.78-.78 2.028-2.027 2.027-2.028 1.477 1.502c.821.83 1.584 1.568 1.707 1.65.493.312 1.133-.082 1.133-.681 0-.271-.123-.419-1.617-1.92l-1.617-1.626 1.289-1.297c1.256-1.264 1.288-1.313 1.288-1.65 0-.475-.27-.746-.746-.746-.337 0-.386.033-1.65 1.288Zm-4.202.788c.221.115.73.517 1.116.903l.706.69-2.027 2.027-2.028 2.027-.706-.73c-.91-.96-1.083-1.322-1.091-2.233 0-.582.033-.771.213-1.157a3.166 3.166 0 0 1 1.904-1.682c.526-.173 1.404-.107 1.913.155ZM18.9 26.562c.886.944 1.067 1.362 1.018 2.33-.033.51-.09.756-.263 1.092a3.4 3.4 0 0 1-1.379 1.387c-.386.205-.525.23-1.214.23-1.018 0-1.322-.148-2.25-1.091l-.705-.715 1.986-1.986c1.1-1.1 2.02-1.994 2.044-1.994.033 0 .377.336.763.747Z"/></g></svg>
